dist/img/contact-us/phone.svg

<svg width="20" height="20" viewBox="0 0 20 20" fill="none" xmlns="http://www.w3.org/2000/svg"><path d="M16.6858 12.9067C16.1608 12.8942 15.5 12.8633 15.0825 12.79C14.6308 12.71 14.0875 12.555 13.705 12.4358C13.405 12.3425 13.0783 12.425 12.8558 12.6467L11.0083 14.4833C9.73167 13.8108 8.70917 13.0275 7.84333 12.1567C6.9725 11.2908 6.18917 10.2683 5.51667 8.99167L7.35333 7.14333C7.575 6.92083 7.6575 6.59417 7.56417 6.29417C7.44583 5.9125 7.29 5.36917 7.21083 4.9175C7.13667 4.5 7.10667 3.83917 7.09333 3.31417C7.0825 2.86 6.7125 2.5 6.25833 2.5H3.33333C2.96833 2.5 2.5 2.77333 2.5 3.33333C2.5 7.11583 4.03333 10.7283 6.63833 13.3617C9.27167 15.9667 12.8842 17.5 16.6667 17.5C17.2267 17.5 17.5 17.0317 17.5 16.6667V13.7417C17.5 13.2875 17.14 12.9175 16.6858 12.9067Z" fill="#8F9190"/></svg>

<svg width="20" height="20" viewBox="0 0 20 20" fill="none" xmlns="http://www.w3.org/2000/svg"><path d="M16.686 12.907c-.525-.013-1.186-.044-1.604-.117-.451-.08-.995-.235-1.377-.354a.848.848 0 00-.85.21l-1.847 1.837a12.815 12.815 0 01-3.165-2.326 12.816 12.816 0 01-2.326-3.165l1.836-1.849a.847.847 0 00.211-.849 12.166 12.166 0 01-.353-1.376c-.074-.418-.104-1.079-.118-1.604a.833.833 0 00-.835-.814H3.333c-.365 0-.833.273-.833.833 0 3.783 1.533 7.395 4.138 10.029 2.634 2.605 6.246 4.138 10.029 4.138.56 0 .833-.468.833-.833v-2.925a.833.833 0 00-.814-.835z" fill="#8F9190"/></svg>
